X: 1
T: William Durette's Clog
M: 4/4
L: 1/8
R: barndance
K: Dmaj
|: (3gfe | 
d>AF>A d>fe>d | c>AG>E B2 c>B | A>ce>g b>ag>e | d>ef>d A2 f>e |
d>AF>A d>fe>d | c>AG>E B2 B2 | A>ce>g b>ag>e | d>fe>c d2 :|
|: f>g | 
(3aba ^g>a b>af>d | e>fg>e B2 c>B | A>ce>g b>ag>e | d>e (3fed A2 f>g |
(3aaa (3aaa b>af>d | e>^de>g B2 c>B | A2 c>g b>a (3gfe | d2 f2 d2 :|
